remix/Logos/vuejs-line.svg

<svg viewBox="0 0 24 24" fill="currentColor" xmlns="http://www.w3.org/2000/svg"><path d="M3.31677 3L12.001 18L20.6852 3H23.001L12.001 22L1.00098 3H3.31677ZM7.65887 3L12.001 10.5L16.3431 3H18.6589L12.001 14.5L5.34308 3H7.65887Z"/></svg>

<svg viewBox="0 0 24 24" xmlns="http://www.w3.org/2000/svg"><path fill="none" d="M0 0h24v24H0Z"/><path d="M3.31 3l8.68 15 8.68-15h2.31l-11 19L.98 3h2.31Zm4.34 0l4.34 7.5L16.33 3h2.31l-6.66 11.5L5.32 3H7.63Z"/></svg>
